.local/share/icons/Gruvbox-Plus-Dark/status/symbolic/folder-open-symbolic.svg

<svg width="16" height="16" version="1.1" xmlns="http://www.w3.org/2000/svg">
  <defs>
    <style id="current-color-scheme" type="text/css">.ColorScheme-Text { color:#ebdbb2; } .ColorScheme-Highlight { color:#458588; } .ColorScheme-NeutralText { color:#fe8019; } .ColorScheme-PositiveText { color:#689d6a; } .ColorScheme-NegativeText { color:#fb4934; }</style>
  </defs>
  <path class="ColorScheme-Text" d="m2 1s-1 0-1 1v3c0-1 1-1 1-1h5l2 2h5s1 0 1 1v-3c0-1-1-1-1-1h-5l-2-2z" fill="currentColor" opacity=".3"/>
  <path class="ColorScheme-Text" d="m2 5s-1 0-1 1v8s0 1 1 1h12s1 0 1-1v-6c0-1-1-1-1-1h-5l-2-2z" fill="currentColor"/>
</svg>

<svg xmlns="http://www.w3.org/2000/svg" width="16" height="16" version="1.1">
 <path style="opacity:0.3;fill:#ebdbb2" d="M 2,1 C 2,1 1,1 1,2 V 5 C 1,4 2,4 2,4 H 7 L 9,6 H 14 C 14,6 15,6 15,7 V 4 C 15,3 14,3 14,3 H 9 L 7,1 Z"/>
 <path style="fill:#ebdbb2" d="M 2,5 C 2,5 1,5 1,6 V 13 C 1,13 1,14 2,14 H 14 C 14,14 15,14 15,13 V 8 C 15,7 14,7 14,7 H 9 L 7,5 Z"/>
</svg>
